school/img/country/LS.svg

<svg width="13" height="12" viewBox="0 0 13 12" fill="none" xmlns="http://www.w3.org/2000/svg">
<rect x="0.25" y="0.25" width="12.5" height="11.5" rx="1.75" fill="white" stroke="#F5F5F5" stroke-width="0.5"/>
<mask id="mask0" mask-type="alpha" maskUnits="userSpaceOnUse" x="0" y="0" width="13" height="12">
<rect x="0.25" y="0.25" width="12.5" height="11.5" rx="1.75" fill="white" stroke="white" stroke-width="0.5"/>
</mask>
<g mask="url(#mask0)">
<path fill-rule="evenodd" clip-rule="evenodd" d="M0 4H13V0H0V4Z" fill="#0C33B8"/>
<path fill-rule="evenodd" clip-rule="evenodd" d="M0 12H13V8H0V12Z" fill="#1DB158"/>
<path fill-rule="evenodd" clip-rule="evenodd" d="M6.19051 6V6C6.27299 5.68025 6.72708 5.68025 6.80956 6V6L7.33121 7.0112C7.39062 7.12637 7.37715 7.2665 7.27424 7.34526C7.12475 7.45969 6.86668 7.6 6.50003 7.6C6.13338 7.6 5.87531 7.45969 5.72582 7.34526C5.62292 7.2665 5.60945 7.12637 5.66886 7.0112L6.19051 6Z" fill="#262626"/>
<path d="M6.78574 5.19999C6.78574 5.54228 6.58337 5.66666 6.50003 5.66666C6.41669 5.66666 6.21431 5.54228 6.21431 5.19999C6.21431 4.85771 6.41669 4.73333 6.50003 4.73333C6.58337 4.73333 6.78574 4.85771 6.78574 5.19999Z" stroke="#262626" stroke-width="0.666667"/>
</g>
</svg>

<svg width="13" height="12" fill="none" xmlns="http://www.w3.org/2000/svg"><rect x=".25" y=".25" width="12.5" height="11.5" rx="1.75" fill="#fff" stroke="#F5F5F5" stroke-width=".5"/><mask id="a" maskUnits="userSpaceOnUse" x="0" y="0" width="13" height="12"><rect x=".25" y=".25" width="12.5" height="11.5" rx="1.75" fill="#fff" stroke="#fff" stroke-width=".5"/></mask><g mask="url(#a)"><path fill-rule="evenodd" clip-rule="evenodd" d="M0 4h13V0H0v4z" fill="#0C33B8"/><path fill-rule="evenodd" clip-rule="evenodd" d="M0 12h13V8H0v4z" fill="#1DB158"/><path fill-rule="evenodd" clip-rule="evenodd" d="M6.19 6c.083-.32.537-.32.62 0l.521 1.011c.06.115.046.255-.057.334-.15.115-.407.255-.774.255-.367 0-.625-.14-.774-.255-.103-.079-.117-.219-.057-.334L6.19 6z" fill="#262626"/><path d="M6.786 5.2c0 .342-.203.467-.286.467-.083 0-.286-.125-.286-.467s.203-.467.286-.467c.083 0 .286.125.286.467z" stroke="#262626" stroke-width=".667"/></g></svg>
